sprites/actors/ghost_pinky/pinky_up_alternate.svg

<?xml version="1.0" encoding="UTF-8" standalone="no"?>
<!-- Created with Inkscape (http://www.inkscape.org/) -->

<svg
   width="100"
   height="100"
   viewBox="0 0 100 100"
   version="1.1"
   id="svg5"
   inkscape:version="1.2 (dc2aeda, 2022-05-15)"
   sodipodi:docname="pinky_up_template.svg"
   xmlns:inkscape="http://www.inkscape.org/namespaces/inkscape"
   xmlns:sodipodi="http://sodipodi.sourceforge.net/DTD/sodipodi-0.dtd"
   xmlns="http://www.w3.org/2000/svg"
   xmlns:svg="http://www.w3.org/2000/svg">
  <sodipodi:namedview
     id="namedview7"
     pagecolor="#ffffff"
     bordercolor="#000000"
     borderopacity="0.25"
     inkscape:showpageshadow="2"
     inkscape:pageopacity="0.0"
     inkscape:pagecheckerboard="0"
     inkscape:deskcolor="#d1d1d1"
     inkscape:document-units="px"
     showgrid="true"
     inkscape:zoom="5.5731762"
     inkscape:cx="46.382887"
     inkscape:cy="55.175001"
     inkscape:window-width="1920"
     inkscape:window-height="1016"
     inkscape:window-x="0"
     inkscape:window-y="0"
     inkscape:window-maximized="1"
     inkscape:current-layer="layer1">
    <inkscape:grid
       type="xygrid"
       id="grid2865" />
  </sodipodi:namedview>
  <defs
     id="defs2">
    <inkscape:perspective
       sodipodi:type="inkscape:persp3d"
       inkscape:vp_x="0 : 50 : 1"
       inkscape:vp_y="0 : 1000 : 0"
       inkscape:vp_z="100 : 50 : 1"
       inkscape:persp3d-origin="50 : 33.333333 : 1"
       id="perspective5340" />
  </defs>
  <g
     inkscape:label="Layer 1"
     inkscape:groupmode="layer"
     id="layer1">
    <path
       id="path13817"
       style="fill:#ff2df8;fill-opacity:1;stroke-width:10"
       d="m 88.15059,38.241912 c 1.767402,5.650724 1.513313,11.354806 1.515831,16.912134 0.0069,15.133555 2.336145,24.776064 -0.602871,33.38026 -0.492324,1.441316 -6.264574,6.042747 -8.185965,1.74253 -2.352881,-5.265926 2.069164,-14.540563 -1.46784,-15.52691 -2.973034,-0.829075 -6.359759,-1.215558 -6.829601,1.253628 -1.023113,5.376824 -0.710711,11.141396 -2.582118,13.948822 -1.957218,2.936158 -1.9534,1.761757 -3.866749,0.08345 C 63.624432,87.836928 64.320752,80.43132 62.980484,76.086706 61.856288,72.442511 55.029048,72.526846 53.446787,75.498013 52.973957,76.385892 52.42653,86.56058 49.802273,90.0215 47.68378,92.815411 47.138851,93.083285 45.481027,90.03826 43.033899,85.543473 41.71568,76.197529 39.37323,75.309512 36.23956,74.121546 36.129692,72.807981 28.795462,74.650184 25.629983,75.445285 26.428734,87.061355 24.603209,89.612565 23.742296,90.815709 13.050904,91.689587 10.989239,85.927659 9.9983419,83.158306 10.528036,56.442006 10.279775,53.627516 8.6674062,35.348351 19.89767,17.771464 38.127833,12.0641 46.669214,9.3900281 55.434158,9.7326425 63.274037,12.49111 74.743495,16.526648 84.233072,25.732745 88.146273,38.228118 L 50.05386,50.157593 Z"
       sodipodi:nodetypes="cssssssssssssssssssccc" />
  </g>
</svg>

<svg width="100" height="100" xmlns="http://www.w3.org/2000/svg"><path d="M88.15 38.242c1.768 5.65 1.514 11.355 1.516 16.912.007 15.134 2.337 24.776-.602 33.38-.493 1.442-6.265 6.043-8.186 1.743-2.353-5.266 2.069-14.54-1.468-15.527-2.973-.83-6.36-1.216-6.83 1.254-1.023 5.376-.71 11.14-2.582 13.948-1.957 2.937-1.953 1.762-3.867.084-2.507-2.2-1.81-9.605-3.15-13.95-1.125-3.643-7.952-3.56-9.534-.588-.473.888-1.02 11.063-3.645 14.523-2.118 2.794-2.663 3.062-4.321.017-2.447-4.495-3.765-13.84-6.108-14.728-3.133-1.188-3.243-2.502-10.578-.66-3.165.795-2.366 12.411-4.192 14.963-.86 1.203-11.552 2.077-13.614-3.685-.99-2.77-.461-29.486-.71-32.3-1.612-18.28 9.619-35.857 27.849-41.564a39.74 39.74 0 0 1 25.146.427c11.47 4.036 20.96 13.242 24.872 25.737l-38.092 11.93z" fill="#ff2df8"/></svg>
